src/topics/icons/phpstorm.svg

<svg height="256" preserveAspectRatio="xMidYMid" viewBox="0 0 256 256" width="256" xmlns="http://www.w3.org/2000/svg" xmlns:xlink="http://www.w3.org/1999/xlink"><linearGradient id="a" x1="1.353591%" x2="75.580111%" y1="144.124579%" y2="24.62963%"><stop offset=".02" stop-color="#765af8"/><stop offset=".38" stop-color="#b345f1"/><stop offset=".76" stop-color="#fa3293"/><stop offset=".94" stop-color="#ff318c"/></linearGradient><linearGradient id="b" x1="60.022831%" x2="25.410959%" y1="98.520408%" y2="6.721939%"><stop offset=".18" stop-color="#765af8"/><stop offset=".24" stop-color="#8655f6"/><stop offset=".34" stop-color="#9f4cf3"/><stop offset=".44" stop-color="#ae47f2"/><stop offset=".52" stop-color="#b345f1"/></linearGradient><linearGradient id="c" x1="87.772277%" x2="17.940594%" y1="80.797342%" y2="35.498339%"><stop offset=".02" stop-color="#765af8"/><stop offset=".38" stop-color="#b345f1"/></linearGradient><path d="m0 49.2 43.6-49.2 89.2 19.2 12 36.4-8.8 63.2-35.462308-18.148358 1.862308 50.548358v44l-78 .8z" fill="url(#a)"/><path d="m80.8 150 4.8-60.4 72.4-74.4 64.8 12 33.2 82.8-34.8 34.4-56.4-9.2-35.6 36.8z" fill="url(#b)"/><path d="m158 15.2-104 92.4 20 118.4 86.4 30 95.6-57.2z" fill="url(#c)"/><path d="m48 48h160v160h-160z"/><path d="m63.2 178h60v10h-60zm-.8-109.2h27.2c16 0 25.6 9.2 25.6 22.8 0 15.2-12 23.2-26.8 23.2h-11.2v20h-14.8zm26.4 34c6.98 0 11.6-4.8 11.6-10.4 0-6.4-4.4-10-12-10h-11.2v20.4zm30 22.8 8.8-10.4c6 4.8 12.4 8 20 8 6 0 9.6-2.4 9.6-6.4 0-3.6-2.4-5.6-13.6-8.4-13.6-3.6-22-7.2-22-20.4v-.4c0-12 9.6-20 23.2-20 8.971202-.0384465 17.698743 2.9176559 24.8 8.4l-7.6 11.2c-6-4-11.6-6.4-17.2-6.4s-8.4 2.4-8.4 6c0 4.4 2.8 6 14.4 8.8 13.6 3.6 21.2 8.4 21.2 20 0 13.2-10 20.8-24.4 20.8-10.615458.14349-20.896401-3.711864-28.8-10.8z" fill="#fff"/></svg>

<?xml version="1.0" encoding="UTF-8" standalone="no"?>
<svg width="256px" height="256px" viewBox="0 0 256 256" version="1.1" xmlns="http://www.w3.org/2000/svg" xmlns:xlink="http://www.w3.org/1999/xlink" preserveAspectRatio="xMidYMid">
    <defs>
        <linearGradient x1="1.35359116%" y1="144.124579%" x2="75.5801105%" y2="24.6296296%" id="linearGradient-1">
            <stop stop-color="#765AF8" offset="2%"></stop>
            <stop stop-color="#B345F1" offset="38%"></stop>
            <stop stop-color="#FA3293" offset="76%"></stop>
            <stop stop-color="#FF318C" offset="94%"></stop>
        </linearGradient>
        <linearGradient x1="60.0228311%" y1="98.5204082%" x2="25.4109589%" y2="6.72193878%" id="linearGradient-2">
            <stop stop-color="#765AF8" offset="18%"></stop>
            <stop stop-color="#8655F6" offset="24%"></stop>
            <stop stop-color="#9F4CF3" offset="34%"></stop>
            <stop stop-color="#AE47F2" offset="44%"></stop>
            <stop stop-color="#B345F1" offset="52%"></stop>
        </linearGradient>
        <linearGradient x1="87.7722772%" y1="80.7973422%" x2="17.9405941%" y2="35.4983389%" id="linearGradient-3">
            <stop stop-color="#765AF8" offset="2%"></stop>
            <stop stop-color="#B345F1" offset="38%"></stop>
        </linearGradient>
    </defs>
	<g>
		<path d="M0,49.2 L43.6,0 L132.8,19.2 L144.8,55.6 L136,118.8 L100.537692,100.651642 L102.4,151.2 L102.4,195.2 L24.4,196 L0,49.2 Z" fill="url(#linearGradient-1)"></path>
		<polygon fill="url(#linearGradient-2)" points="80.8 150 85.6 89.6 158 15.2 222.8 27.2 256 110 221.2 144.4 164.8 135.2 129.2 172"></polygon>
		<polygon fill="url(#linearGradient-3)" points="158 15.2 54 107.6 74 226 160.4 256 256 198.8"></polygon>
		<rect fill="#000000" x="48" y="48" width="160" height="160"></rect>
		<path d="M63.2,178 L123.2,178 L123.2,188 L63.2,188 L63.2,178 Z M62.4,68.8 L89.6,68.8 C105.6,68.8 115.2,78 115.2,91.6 C115.2,106.8 103.2,114.8 88.4,114.8 L77.2,114.8 L77.2,134.8 L62.4,134.8 L62.4,68.8 L62.4,68.8 Z M88.8,102.8 C95.78,102.8 100.4,98 100.4,92.4 C100.4,86 96,82.4 88.4,82.4 L77.2,82.4 L77.2,102.8 L88.8,102.8 Z M118.8,125.6 L127.6,115.2 C133.6,120 140,123.2 147.6,123.2 C153.6,123.2 157.2,120.8 157.2,116.8 C157.2,113.2 154.8,111.2 143.6,108.4 C130,104.8 121.6,101.2 121.6,88 L121.6,87.6 C121.6,75.6 131.2,67.6 144.8,67.6 C153.771202,67.5615535 162.498743,70.5176559 169.6,76 L162,87.2 C156,83.2 150.4,80.8 144.8,80.8 C139.2,80.8 136.4,83.2 136.4,86.8 C136.4,91.2 139.2,92.8 150.8,95.6 C164.4,99.2 172,104 172,115.6 C172,128.8 162,136.4 147.6,136.4 C136.984542,136.54349 126.703599,132.688136 118.8,125.6 Z" fill="#FFFFFF"></path>
	</g>
</svg>
